X:4808
T:En faisant le tour du moulin
R:Rondanse
A:Normandie
O:France
M:6/8
L:1/8
Q:1/4=140
K:G
BBB|d3cBA|G3 BBB|d2 G A3|G3 BBB|!
d3 cBA|G3 BBB|d2 G A3|G3 z2 B|d2 e d2 c|!
d2 e d2 d|d2 e d2 c|d2 e d2 B|c2 d  e2 e|d2 c B2z|!
ddd e2 d|cBc A2A|c2d e2c|ddd G3||!
